src/img/icons/gato_animado1.svg

<svg width="104" height="84" viewBox="0 0 104 84" fill="none" xmlns="http://www.w3.org/2000/svg">
<path fill-rule="evenodd" clip-rule="evenodd" d="M70.2439 37.8731L69.7122 37.3657C69.4169 37.0839 69.4059 36.6165 69.6876 36.3212L78.5181 27.0634C77.1647 25.203 77.2902 22.5818 78.934 20.8585C80.7599 18.9441 83.7811 18.8493 85.7234 20.6275C87.5918 18.9938 90.4357 19.0265 92.2662 20.7729C93.0087 21.4814 93.4776 22.3699 93.6694 23.3053C94.6385 23.4422 95.5754 23.8722 96.337 24.5987C98.1412 26.32 98.329 29.1035 96.8556 31.0441C98.4811 32.9129 98.4454 35.7506 96.7021 37.5783C95.0625 39.2971 92.4594 39.5491 90.539 38.2956L81.5903 47.6772C81.3087 47.9725 80.8411 47.9835 80.546 47.7018L80.0184 47.1985L81.2538 45.9034L81.247 45.8967L89.9254 36.7982C90.1999 36.5105 90.6526 36.4917 90.9501 36.7555C92.3024 37.9552 94.3753 37.8771 95.6332 36.5586C96.9198 35.2096 96.8693 33.0698 95.5206 31.7831C95.4695 31.7343 95.4171 31.6875 95.364 31.6426C95.204 31.5076 95.1088 31.3114 95.1018 31.1022C95.095 30.8931 95.1769 30.691 95.3276 30.5457C95.3621 30.5124 95.3961 30.4782 95.4296 30.443C96.7161 29.0943 96.6659 26.9545 95.3171 25.6678C94.6709 25.0512 93.8428 24.7417 93.0143 24.735C92.6287 24.7319 92.3104 24.4327 92.2833 24.0479C92.2264 23.2382 91.8795 22.446 91.2463 21.8421C89.8976 20.5553 87.7582 20.6057 86.4716 21.9546C86.4062 22.0232 86.3442 22.0937 86.2856 22.1661C86.1435 22.3422 85.9285 22.4434 85.7023 22.4407C85.4761 22.438 85.2637 22.3319 85.1256 22.1525C85.0213 22.0169 84.9054 21.8876 84.7778 21.7658C83.429 20.4791 81.2894 20.5295 80.0028 21.8784C78.7418 23.2005 78.7651 25.2824 80.0366 26.5761C80.3162 26.8605 80.3196 27.3154 80.0443 27.604L71.4821 36.5804L71.4793 36.5777L70.2439 37.8731Z" fill="#3D3D3D" stroke="#3D3D3D" stroke-width="4" stroke-miterlimit="2" stroke-linejoin="round"/>
<path fill-rule="evenodd" clip-rule="evenodd" d="M59.5509 19.6432C58.891 18.3408 56.2945 18.3725 55.5588 19.6432C54.7772 20.9933 54.8619 22.503 55.5588 23.8743C56.1924 25.1213 58.76 25.3466 59.5509 23.8743C60.3016 22.4766 60.227 20.9778 59.5509 19.6432Z" fill="#3D3D3D"/>
<path fill-rule="evenodd" clip-rule="evenodd" d="M46.5497 19.6432C45.9019 18.3408 43.3529 18.3725 42.6306 19.6432C41.8634 20.9933 41.9465 22.503 42.6306 23.8743C43.2527 25.1213 45.7734 25.3466 46.5497 23.8743C47.2868 22.4766 47.2135 20.9778 46.5497 19.6432Z" fill="#3D3D3D"/>
<path fill-rule="evenodd" clip-rule="evenodd" d="M51.2161 31.6244C50.9111 31.6282 50.5595 31.8212 50.3684 31.9508C48.6479 33.1179 46.5907 33.2843 44.2816 32.3926C42.2167 31.5952 43.3449 28.5996 44.554 29.1177C46.7146 30.0438 47.674 29.2258 50.0876 27.8465C50.4417 27.6439 50.9674 27.6246 51.1864 27.6243C51.1894 27.6243 51.1925 27.6243 51.1955 27.6243C51.4145 27.6246 51.9402 27.6439 52.2945 27.8465C54.7078 29.2258 55.6182 29.9198 57.8281 29.1177C59.3605 28.5614 60.2247 31.5952 58.1599 32.3926C55.8507 33.2843 53.7935 33.1179 52.073 31.9508C51.8819 31.8212 51.5301 31.6282 51.2253 31.6244C51.2222 31.6244 51.2192 31.6244 51.2161 31.6244Z" fill="#3D3D3D"/>
<path fill-rule="evenodd" clip-rule="evenodd" d="M28.236 58.6785C17.2844 53.2972 11.1563 38.0021 18.5633 25.3141C19.3379 23.9871 21.0441 23.5388 22.3709 24.3136C23.6976 25.0883 24.146 26.7946 23.3714 28.1216C17.8418 37.5936 22.0886 48.9872 30.0795 53.3634C30.1658 53.1529 30.25 52.9593 30.3306 52.7865C31.3845 50.5257 32.9822 48.4032 34.1132 46.1745C34.7252 44.9684 35.1999 43.7319 35.1176 42.3609C35.0337 40.9576 34.3562 39.4675 32.9249 37.7392C32.8814 37.6867 32.84 37.6329 32.8006 37.5773C24.5094 28.9591 25.7233 14.5394 31.6967 3.90804C32.081 3.2244 32.7357 2.73433 33.5001 2.5587C34.2644 2.38287 35.0672 2.53789 35.7115 2.98519C35.7115 2.98519 41.7601 7.18614 41.76 7.18614C47.5946 5.81752 53.4293 5.69113 59.2638 6.75755L65.7123 2.71601C66.3699 2.30383 67.1699 2.1849 67.9192 2.38802C68.6682 2.59134 69.2985 3.09821 69.658 3.78624C73.8884 11.8869 75.4903 20.184 73.6834 27.5246C73.3161 29.0168 71.8068 29.9299 70.3148 29.5626C68.823 29.1951 67.91 27.6856 68.2773 26.1936C69.5871 20.8726 68.6165 14.9752 66.0321 9.08683L61.2877 12.0602C60.6782 12.4423 59.9447 12.5734 59.2407 12.4264C53.4682 11.2214 47.6958 11.3524 41.9234 12.8842C41.1338 13.0936 40.2924 12.9459 39.6214 12.4801L35.1654 9.38503C31.4744 17.6069 30.8236 27.6749 36.9589 33.8666C37.0328 33.9411 37.4614 34.5404 37.4614 34.5404L37.2126 34.1874C39.6108 37.0831 40.5343 39.6766 40.6753 42.0276C40.8183 44.4109 40.142 46.5978 39.078 48.6944C37.9745 50.8688 36.405 52.9337 35.3767 55.1393C34.9699 56.0123 34.4465 57.594 34.1567 59.0241C34.0437 59.5823 33.9202 60.1014 33.945 60.4801C33.9504 60.5254 33.9559 60.5704 33.9616 60.6155C33.9637 60.6267 33.966 60.6378 33.9685 60.6487C34.0067 60.8161 34.0288 60.9836 34.0359 61.1493C35.7 72.0504 45.5617 76.8907 54.3683 75.8279C60.6099 75.0747 66.3762 71.3526 68.1398 64.5692C68.3687 63.6885 68.4682 62.2468 68.1229 60.5196C68.0024 59.9168 67.8272 59.2814 67.5844 58.6235C67.0522 57.1822 67.7903 55.5797 69.2317 55.0476C70.6729 54.5154 72.2752 55.2534 72.8072 56.695C73.1573 57.6428 73.4085 58.5588 73.5824 59.4278C74.1402 62.2184 73.8982 64.5475 73.5282 65.9703C71.1433 75.1441 63.4763 80.3373 55.0352 81.356C42.6464 82.851 28.7092 75.3386 28.236 58.6785Z" fill="#3D3D3D"/>
</svg>

<svg xmlns="http://www.w3.org/2000/svg" width="104" height="84" fill="none" viewBox="0 0 104 84"><path fill="#3d3d3d" fill-rule="evenodd" stroke="#3d3d3d" stroke-linejoin="round" stroke-miterlimit="2" stroke-width="4" d="m70.244 37.873-.532-.507a.74.74 0 0 1-.024-1.045l8.83-9.258a4.857 4.857 0 0 1 7.205-6.436 4.857 4.857 0 0 1 7.946 2.678 4.86 4.86 0 0 1 3.186 7.739 4.86 4.86 0 0 1-.153 6.534 4.86 4.86 0 0 1-6.163.718l-8.949 9.381a.74.74 0 0 1-1.044.025l-.528-.503 1.236-1.296-.007-.006 8.678-9.099a.74.74 0 0 1 1.025-.043 3.379 3.379 0 1 0 4.414-5.112.74.74 0 0 1-.036-1.097l.102-.103a3.38 3.38 0 0 0-2.416-5.708.74.74 0 0 1-.73-.687 3.378 3.378 0 0 0-5.998-1.882.738.738 0 0 1-1.16-.014 3.38 3.38 0 0 0-5.123-.274 3.38 3.38 0 0 0 .034 4.698c.28.284.283.74.007 1.028l-8.562 8.976-.003-.002z" clip-rule="evenodd"/><path fill="#3d3d3d" fill-rule="evenodd" d="M59.55 19.643c-.659-1.302-3.255-1.27-3.991 0-.782 1.35-.697 2.86 0 4.231.633 1.247 3.201 1.473 3.992 0 .75-1.397.676-2.896 0-4.23" clip-rule="evenodd"/><path fill="#3d3d3d" fill-rule="evenodd" d="M46.55 19.643c-.648-1.302-3.197-1.27-3.92 0-.767 1.35-.684 2.86 0 4.231.623 1.247 3.143 1.473 3.92 0 .737-1.397.664-2.896 0-4.23" clip-rule="evenodd"/><path fill="#3d3d3d" fill-rule="evenodd" d="M51.216 31.624c-.305.004-.657.197-.848.327-1.72 1.167-3.777 1.333-6.086.442-2.065-.798-.937-3.793.272-3.275 2.16.926 3.12.108 5.534-1.271.354-.203.88-.222 1.098-.223h.01c.218 0 .744.02 1.099.223 2.413 1.379 3.323 2.073 5.533 1.27 1.532-.556 2.397 2.478.332 3.276-2.31.891-4.366.725-6.087-.442-.191-.13-.543-.323-.848-.327z" clip-rule="evenodd"/><path fill="#3d3d3d" fill-rule="evenodd" d="M28.236 58.679c-10.952-5.382-17.08-20.677-9.673-33.365a2.785 2.785 0 0 1 4.808 2.808c-5.53 9.472-1.282 20.865 6.709 25.241q.13-.316.25-.577c1.055-2.26 2.652-4.383 3.783-6.611.612-1.207 1.087-2.443 1.005-3.814-.084-1.403-.762-2.893-2.193-4.622a3 3 0 0 1-.124-.162c-8.292-8.618-7.078-23.038-1.104-33.669a2.784 2.784 0 0 1 4.015-.923l6.048 4.201a42.4 42.4 0 0 1 17.504-.428l6.448-4.042a2.784 2.784 0 0 1 3.946 1.07c4.23 8.1 5.832 16.398 4.025 23.739a2.785 2.785 0 0 1-3.368 2.038 2.786 2.786 0 0 1-2.038-3.37c1.31-5.32.34-11.218-2.245-17.106l-4.744 2.973a2.78 2.78 0 0 1-2.047.366c-5.773-1.205-11.545-1.074-17.318.458-.79.21-1.63.062-2.302-.404l-4.456-3.095c-3.69 8.222-4.341 18.29 1.794 24.482.074.074.502.673.502.673l-.248-.353c2.398 2.896 3.321 5.49 3.462 7.84.143 2.384-.533 4.57-1.597 6.667-1.104 2.175-2.673 4.24-3.701 6.445-.407.873-.93 2.455-1.22 3.885-.113.558-.237 1.077-.212 1.456q.007.067.017.136l.006.033q.057.252.068.5C35.7 72.05 45.562 76.891 54.368 75.828c6.242-.753 12.008-4.475 13.772-11.259.229-.88.328-2.322-.017-4.05a12.6 12.6 0 0 0-.539-1.895 2.785 2.785 0 0 1 5.223-1.928c.35.947.602 1.863.775 2.732.558 2.79.316 5.12-.054 6.542-2.385 9.174-10.052 14.367-18.493 15.386-12.389 1.495-26.326-6.017-26.799-22.677" clip-rule="evenodd"/></svg>
